assets/Police officer/Medium-Dark/Flat/police_officer_flat_medium-dark.svg

<svg width="32" height="32" viewBox="0 0 32 32" fill="none" xmlns="http://www.w3.org/2000/svg">
<path d="M24.3215 29.9997L25.7415 25.9622L24.3215 21.7484C22.1215 19.7131 19.1915 18.5 16.0515 18.5C12.8915 18.5 9.94146 19.7232 7.74146 21.7885L6.74146 25.9622L7.74146 29.9997H24.3215Z" fill="#00A6ED"/>
<path d="M13.5 18.5H18.5V19C18.5 20.3807 17.3807 21.5 16 21.5V21.5C14.6193 21.5 13.5 20.3807 13.5 19V18.5Z" fill="#8B5C56"/>
<path d="M16.6077 24.6224L18.0007 22L16 21.5L14.0007 22L15.3937 24.6224L14.2395 30H17.6127L16.6077 24.6224Z" fill="#0074BA"/>
<path d="M15.9907 21.8079L14.1748 23.3993C13.9327 23.6122 13.5788 23.4703 13.5136 23.1358L12.75 19L15.9907 21.0071L19.25 19L18.4864 23.1358C18.4212 23.4703 18.0673 23.6122 17.8252 23.3993L15.9907 21.8079Z" fill="#50E2FF"/>
<path d="M27.5852 27.0637C27.8829 28.0262 28.1012 29.0088 28.25 30.0013H24.2614V21.75C25.7794 23.1637 26.9403 24.9783 27.5852 27.0637Z" fill="#0084CE"/>
<path d="M7.73861 21.7901V30.0014H3.75C3.89957 29.0188 4.12892 28.0563 4.42806 27.1039L4.45798 27.0136C5.10613 24.9684 6.25285 23.1837 7.73861 21.7901Z" fill="#0084CE"/>
<path d="M22.0036 6.56803C21.6609 5.97158 22.2663 5.55865 21.6723 5.35219C21.0211 5.13425 20.4499 4.69838 20.0957 4.1134C19.6159 3.32196 18.7477 3.94135 17.7652 3.94135C17.3882 3.94135 17.0226 2.87462 16.7027 3.01226C16.2572 3.20725 15.7545 3.20725 15.309 3.01226C14.9776 2.87462 14.6235 3.94135 14.2465 3.94135C13.2754 3.94135 12.4186 3.29902 11.9388 4.06752C11.5618 4.66397 11.002 5.12278 10.328 5.35219C9.69962 5.57012 9.48249 6.98096 9.15118 7.61182C8.65994 8.52944 8.43153 8.66708 8.99132 9.48147C9.18553 9.77969 9.29977 10.1353 9.29977 10.4908V15.2739C9.29977 16.3407 9.97381 17.2812 10.9791 17.6368L13.1383 18.3824V9.87145C13.3097 9.71087 13.4468 9.51588 13.5725 9.29794C13.7667 8.96531 13.8809 8.59826 13.9152 8.24268C14.018 8.25415 14.1322 8.26562 14.2351 8.26562C14.9091 8.26562 15.526 8.02475 15.9944 7.61182C16.4742 8.01328 17.0797 8.26562 17.7537 8.26562C17.868 8.26562 17.9708 8.25415 18.0736 8.24268C18.1193 8.60973 18.2221 8.96531 18.4164 9.29794C18.542 9.51588 18.6905 9.6994 18.8505 9.87145V18.3938L21.0097 17.6483C22.015 17.3042 22.689 16.3521 22.689 15.2854V10.5023C22.689 10.1467 22.8033 9.79116 23.0089 9.49294C23.603 8.64414 22.5405 7.50859 22.0036 6.56803Z" fill="#2D242D"/>
<path d="M12.3157 12.6475C12.3157 13.7054 11.4615 14.563 10.4079 14.563C9.35418 14.563 8.5 13.7054 8.5 12.6475C8.5 11.5895 9.35418 10.7319 10.4079 10.7319C11.4615 10.7319 12.3157 11.5895 12.3157 12.6475Z" fill="#8B5C56"/>
<path d="M23.5 12.6475C23.5 13.7054 22.6458 14.563 21.5921 14.563C20.5385 14.563 19.6843 13.7054 19.6843 12.6475C19.6843 11.5895 20.5385 10.7319 21.5921 10.7319C22.6458 10.7319 23.5 11.5895 23.5 12.6475Z" fill="#8B5C56"/>
<path d="M10.0079 9.89269C10.0939 7.86234 11.8177 6.23584 13.9236 6.23584H15.4176C15.7394 6.23584 16.0152 6.42608 16.1417 6.70584C16.6014 7.70179 17.6242 8.32845 18.739 8.32845H20.3824C21.3019 8.37322 22.0259 9.12298 22.0029 10.0294L21.9891 10.6058L21.6351 16.1506C21.3248 18.3551 19.4055 20.0001 17.1185 20.0001H14.9349C12.6593 20.0001 10.7285 18.3551 10.4297 16.1506L10.0079 9.89269Z" fill="#966661"/>
<path d="M16.0062 16.221C15.3773 16.221 14.7833 16.0618 14.2826 15.78C14.1079 15.682 13.9332 15.8903 14.038 16.0618C14.4573 16.7355 15.1793 17.1887 16.0062 17.1887C16.8331 17.1887 17.5551 16.7355 17.9744 16.0618C18.0792 15.8903 17.8929 15.6943 17.7298 15.78C17.2174 16.0618 16.6351 16.221 16.0062 16.221Z" fill="#990838"/>
<path d="M11.6417 12.439C11.8131 11.7278 12.4528 11.2002 13.2183 11.2002C14.018 11.2002 14.6691 11.7622 14.8177 12.5193C14.8519 12.6913 14.7263 12.8404 14.5549 12.8404H11.9502C11.7445 12.8404 11.5846 12.634 11.6417 12.439Z" fill="white"/>
<path d="M20.3812 12.439C20.2099 11.7278 19.5701 11.2002 18.8047 11.2002C18.005 11.2002 17.3538 11.7622 17.2053 12.5193C17.171 12.6913 17.2967 12.8404 17.468 12.8404H20.0728C20.2784 12.8404 20.4269 12.6454 20.3812 12.439Z" fill="white"/>
<path d="M12.4185 12.5653C12.4185 11.9918 12.8869 11.5215 13.4581 11.5215C14.0407 11.5215 14.5091 11.9918 14.4977 12.5653C14.4977 12.657 14.4863 12.7488 14.4634 12.8406H12.4527C12.4299 12.7488 12.4185 12.657 12.4185 12.5653Z" fill="#7D4533"/>
<path d="M19.6043 12.5653C19.6043 11.9918 19.1359 11.5215 18.5647 11.5215C17.9821 11.5215 17.5251 11.9918 17.5251 12.5653C17.5251 12.657 17.5365 12.7488 17.5594 12.8406H19.57C19.5929 12.7488 19.6043 12.657 19.6043 12.5653Z" fill="#7D4533"/>
<path d="M13.4581 11.9688C13.7894 11.9688 14.0521 12.2326 14.0521 12.5652C14.0521 12.6684 14.0293 12.7602 13.9836 12.8405H12.9326C12.8869 12.7602 12.864 12.6684 12.864 12.5652C12.864 12.2326 13.1268 11.9688 13.4581 11.9688Z" fill="black"/>
<path d="M18.5647 11.9688C18.2334 11.9688 17.9706 12.2326 17.9706 12.5652C17.9706 12.6684 17.9935 12.7602 18.0392 12.8405H19.0902C19.1359 12.7602 19.1588 12.6684 19.1588 12.5652C19.1588 12.2326 18.896 11.9688 18.5647 11.9688Z" fill="black"/>
<path d="M13.2867 12.1406C13.2867 12.2419 13.2049 12.3241 13.1039 12.3241C13.003 12.3241 12.9211 12.2419 12.9211 12.1406C12.9211 12.0392 13.003 11.957 13.1039 11.957C13.2049 11.957 13.2867 12.0392 13.2867 12.1406Z" fill="white"/>
<path d="M18.4277 12.1406C18.4277 12.2419 18.3458 12.3241 18.2449 12.3241C18.1439 12.3241 18.0621 12.2419 18.0621 12.1406C18.0621 12.0392 18.1439 11.957 18.2449 11.957C18.3458 11.957 18.4277 12.0392 18.4277 12.1406Z" fill="white"/>
<path d="M15.6105 12.3026L15.0442 14.2966C14.9266 14.7047 15.2045 15.1245 15.5998 15.1245H16.4333C16.8287 15.1245 17.1066 14.7047 16.989 14.2966L16.4227 12.3026C16.3051 11.8594 15.7388 11.8594 15.6105 12.3026Z" fill="#75443E"/>
<path d="M23.1359 4.01556L18.2095 2.35827C16.7934 1.88058 15.2676 1.88058 13.8515 2.35827L8.87519 4.01556C8.04747 4.28853 7.57876 5.15617 7.80812 5.98481L8.44637 8.26603C8.48626 8.40251 8.6159 8.5 8.76549 8.5H23.2257C23.3753 8.5 23.5049 8.40251 23.5448 8.26603L24.1831 5.98481C24.4324 5.15617 23.9637 4.29828 23.1359 4.01556Z" fill="#00A6ED"/>
<path d="M22.15 8.80743C18.31 7.81743 14.3 7.81743 10.46 8.79743C10.04 8.90743 9.60997 8.65743 9.48997 8.24743C9.35997 7.80743 9.61997 7.34743 10.06 7.23743C14.16 6.18743 18.44 6.18743 22.54 7.24743C22.98 7.35743 23.24 7.81743 23.12 8.25743C23 8.66743 22.57 8.91743 22.15 8.80743Z" fill="#50E2FF"/>
<path d="M9.79004 8.68711C10.58 10.0571 12.06 10.9771 13.76 10.9771H18.82C20.52 10.9771 22 10.0571 22.79 8.68711C18.55 7.44711 14.05 7.44711 9.81004 8.67711L9.79004 8.68711Z" fill="#321B41"/>
<path d="M17.25 3.66299C17.25 3.44877 16.9483 3.37088 16.819 3.54614C16.722 3.67273 16.5172 3.67273 16.431 3.54614L16.194 3.22482C16.097 3.09824 15.8922 3.09824 15.806 3.22482L15.569 3.55588C15.472 3.68246 15.2672 3.68246 15.181 3.55588C15.0517 3.38061 14.75 3.45851 14.75 3.67273V4.49064C14.75 5.12355 15.3103 5.62988 16.0108 5.62988C16.7112 5.62988 17.25 5.12355 17.25 4.49064V3.66299Z" fill="#FCD53F"/>
<path d="M20.4903 28.0247C19.6636 28.0247 19 27.4399 19 26.7112V25.0909C19 24.7745 19.2937 24.5156 19.6527 24.5156H21.3388C21.6978 24.5156 21.9915 24.7745 21.9915 25.0909V26.7016C21.9806 27.4303 21.3061 28.0247 20.4903 28.0247Z" fill="#FCD53F"/>
<path d="M12.8483 26H9.1403C9.06013 26 9 26.0519 9 26.121V26.8816C9 26.9507 9.06013 27.0026 9.1403 27.0026H12.8483C12.9285 27.0026 12.9886 26.9507 12.9886 26.8816V26.121C12.9886 26.0519 12.9285 26 12.8483 26Z" fill="#FCD53F"/>
</svg>

<svg xmlns="http://www.w3.org/2000/svg" width="32" height="32" fill="none"><path fill="#00A6ED" d="m24.322 30 1.42-4.038-1.42-4.214a12.176 12.176 0 0 0-8.27-3.248c-3.16 0-6.11 1.223-8.31 3.288l-1 4.174 1 4.038h16.58Z"/><path fill="#8B5C56" d="M13.5 18.5h5v.5a2.5 2.5 0 0 1-5 0v-.5Z"/><path fill="#0074BA" d="M16.608 24.622 18 22 16 21.5l-2 .5 1.394 2.622L14.239 30h3.374l-1.005-5.378Z"/><path fill="#50E2FF" d="m15.99 21.808-1.815 1.591c-.242.213-.596.071-.661-.263L12.75 19l3.24 2.007L19.25 19l-.764 4.136c-.065.334-.419.476-.66.263l-1.835-1.591Z"/><path fill="#0084CE" d="M27.585 27.064c.298.962.516 1.945.665 2.937h-3.989V21.75a12.146 12.146 0 0 1 3.324 5.314ZM7.739 21.79v8.211H3.75c.15-.982.379-1.945.678-2.897l.03-.09a12.207 12.207 0 0 1 3.28-5.224Z"/><path fill="#2D242D" d="M22.004 6.568c-.343-.596.262-1.01-.332-1.216a2.927 2.927 0 0 1-1.576-1.239c-.48-.791-1.348-.172-2.33-.172-.378 0-.743-1.066-1.063-.929a1.733 1.733 0 0 1-1.394 0c-.331-.137-.685.93-1.063.93-.97 0-1.827-.643-2.307.126a3.086 3.086 0 0 1-1.611 1.284c-.628.218-.846 1.629-1.177 2.26-.491.917-.72 1.055-.16 1.87.195.298.309.653.309 1.009v4.783c0 1.067.674 2.007 1.68 2.363l2.158.745v-8.51a2.44 2.44 0 0 0 .434-.574c.195-.333.309-.7.343-1.055a2.645 2.645 0 0 0 2.08-.63c.48.4 1.085.653 1.759.653.114 0 .217-.012.32-.023a2.729 2.729 0 0 0 .776 1.628v8.523l2.16-.746a2.495 2.495 0 0 0 1.679-2.363v-4.783c0-.355.114-.71.32-1.01.594-.848-.468-1.983-1.005-2.924Z"/><path fill="#8B5C56" d="M12.316 12.648a1.912 1.912 0 0 1-1.908 1.915A1.912 1.912 0 0 1 8.5 12.648c0-1.059.854-1.916 1.908-1.916 1.053 0 1.908.857 1.908 1.916ZM23.5 12.648a1.912 1.912 0 0 1-1.908 1.915 1.912 1.912 0 0 1-1.908-1.915c0-1.059.854-1.916 1.908-1.916 1.054 0 1.908.857 1.908 1.916Z"/><path fill="#966661" d="M10.008 9.893c.086-2.03 1.81-3.657 3.916-3.657h1.494c.321 0 .597.19.724.47.46.996 1.482 1.622 2.597 1.622h1.643c.92.045 1.644.795 1.62 1.701l-.013.577-.354 5.545c-.31 2.204-2.23 3.85-4.517 3.85h-2.183c-2.276 0-4.207-1.646-4.505-3.85l-.422-6.258Z"/><path fill="#990838" d="M16.006 16.221c-.629 0-1.223-.16-1.723-.441-.175-.098-.35.11-.245.282.42.673 1.141 1.127 1.968 1.127s1.55-.454 1.968-1.127c.105-.172-.081-.368-.244-.282a3.55 3.55 0 0 1-1.724.441Z"/><path fill="#fff" d="M11.642 12.439a1.62 1.62 0 0 1 1.576-1.239c.8 0 1.451.562 1.6 1.32a.264.264 0 0 1-.263.32H11.95c-.205 0-.365-.206-.308-.401ZM20.381 12.439a1.62 1.62 0 0 0-1.576-1.239c-.8 0-1.451.562-1.6 1.32a.264.264 0 0 0 .263.32h2.605a.324.324 0 0 0 .308-.401Z"/><path fill="#7D4533" d="M12.418 12.565c0-.573.469-1.043 1.04-1.043.583 0 1.051.47 1.04 1.043 0 .092-.012.184-.035.276h-2.01a1.139 1.139 0 0 1-.034-.276ZM19.604 12.565c0-.573-.468-1.043-1.04-1.043-.582 0-1.039.47-1.039 1.043 0 .092.012.184.034.276h2.011c.023-.092.034-.184.034-.276Z"/><path fill="#000" d="M13.458 11.969c.331 0 .594.264.594.596a.547.547 0 0 1-.068.276h-1.051a.547.547 0 0 1-.069-.276c0-.332.263-.596.594-.596ZM18.565 11.969a.591.591 0 0 0-.594.596c0 .103.023.195.068.276h1.051a.547.547 0 0 0 .069-.276.591.591 0 0 0-.594-.596Z"/><path fill="#fff" d="M13.287 12.14a.183.183 0 1 1-.367.001.183.183 0 0 1 .367 0ZM18.428 12.14a.183.183 0 1 1-.367.001.183.183 0 0 1 .367 0Z"/><path fill="#75443E" d="m15.61 12.303-.566 1.994c-.117.408.16.827.556.827h.833c.396 0 .674-.42.556-.827l-.566-1.994c-.118-.444-.684-.444-.812 0Z"/><path fill="#00A6ED" d="m23.136 4.016-4.927-1.658a6.806 6.806 0 0 0-4.357 0L8.874 4.016a1.624 1.624 0 0 0-1.067 1.969l.638 2.281c.04.137.17.234.32.234h14.46c.15 0 .279-.097.319-.234l.638-2.281c.25-.829-.22-1.687-1.047-1.97Z"/><path fill="#50E2FF" d="M22.15 8.807c-3.84-.99-7.85-.99-11.69-.01a.803.803 0 0 1-.97-.55c-.13-.44.13-.9.57-1.01a25 25 0 0 1 12.48.01c.44.11.7.57.58 1.01-.12.41-.55.66-.97.55Z"/><path fill="#321B41" d="M9.79 8.687a4.572 4.572 0 0 0 3.97 2.29h5.06c1.7 0 3.18-.92 3.97-2.29a23.2 23.2 0 0 0-12.98-.01l-.02.01Z"/><path fill="#FCD53F" d="M17.25 3.663c0-.214-.302-.292-.431-.117-.097.127-.302.127-.388 0l-.237-.321c-.097-.127-.302-.127-.388 0l-.237.33c-.097.127-.302.127-.388 0-.13-.174-.431-.096-.431.118v.818c0 .633.56 1.139 1.26 1.139.701 0 1.24-.506 1.24-1.14v-.827ZM20.49 28.025c-.826 0-1.49-.585-1.49-1.314v-1.62c0-.317.294-.575.653-.575h1.686c.359 0 .652.259.652.575v1.61c-.01.73-.685 1.324-1.5 1.324ZM12.848 26H9.14c-.08 0-.14.052-.14.121v.76c0 .07.06.122.14.122h3.708c.08 0 .14-.052.14-.121v-.761c0-.07-.06-.121-.14-.121Z"/></svg>
